X: 1
T: Farewell To The Town
M: 4/4
L: 1/8
R: reel
K: Gmaj
g2gf g2d2|edce d3B|cdec dcBc|A8|
g2gf g2d2|edce d3B|cBAG FGAF|G8:|
ABcA B2G2|cdec d2ef|gdBd cBAG|
[1 A8|ABcA B2G2|cdec d2ef|gdBd cAFA|G8:|
[2 A2AB cdef|g2ba g2d2|edce d3B|cBAG FGAF|G8|]
